dist/svg/app.svg

<!-- Generated by Trend Micro Style Portal -->
<svg version="1.1" xmlns="http://www.w3.org/2000/svg" width="16" height="16" viewBox="0 0 16 16">
  <title>app</title>
  <path fill="rgb(34,34,34)" d="M7 2v4c0 0.6-0.4 1-1 1h-4c-0.6 0-1-0.4-1-1v-4c0-0.6 0.4-1 1-1h4c0.6 0 1 0.4 1 1zM14 1h-4c-0.6 0-1 0.4-1 1v4c0 0.6 0.4 1 1 1h4c0.6 0 1-0.4 1-1v-4c0-0.6-0.4-1-1-1zM6 9h-4c-0.6 0-1 0.4-1 1v4c0 0.6 0.4 1 1 1h4c0.6 0 1-0.4 1-1v-4c0-0.6-0.4-1-1-1zM14 9h-4c-0.6 0-1 0.4-1 1v4c0 0.6 0.4 1 1 1h4c0.6 0 1-0.4 1-1v-4c0-0.6-0.4-1-1-1z"></path>
</svg>

<svg width="16" height="16" viewBox="0 0 16 16" fill="rgb(34, 34, 34)" xmlns="http://www.w3.org/2000/svg"><title>APP</title><path d="M7 2V6C7 6.6 6.6 7 6 7H2C1.4 7 1 6.6 1 6V2C1 1.4 1.4 1 2 1H6C6.6 1 7 1.4 7 2ZM14 1H10C9.4 1 9 1.4 9 2V6C9 6.6 9.4 7 10 7H14C14.6 7 15 6.6 15 6V2C15 1.4 14.6 1 14 1ZM6 9H2C1.4 9 1 9.4 1 10V14C1 14.6 1.4 15 2 15H6C6.6 15 7 14.6 7 14V10C7 9.4 6.6 9 6 9ZM14 9H10C9.4 9 9 9.4 9 10V14C9 14.6 9.4 15 10 15H14C14.6 15 15 14.6 15 14V10C15 9.4 14.6 9 14 9Z" fill="rgb(34, 34, 34)" fill-opacity="1.00"/></svg>
